X:1
T:Title
%%score 1 ( 2 3 )
L:1/8
Q:1/4=90
M:6/8
K:Bb
V:1 treble nm="Strings 1, Soprano"
V:2 bass nm="Strings 1, Bass"
V:3 bass 
V:1
 z3 z2 [DF] | [DF][EG][DF] [DB][FA][EG] | [DF][DF][DF] [DB]2 [DB] | [FA][FA][FA] [FA][FB][Fc] | %4
 [FB]3 [DF]2 [DF] | [EG][EG][EG] [GB][FA][EG] | [DF][DF][DF] [DB]2 [DB] | %7
 [EA][EA][EA] [EA][EG][EA] | [DB]3- [DB]2 [DF] | [Fd][Fd][Fd] [Fd][Ge][Fd] | [Ec]3- [Ec]2 [EF] | %11
 [Ec][Ec][Ec] [Ec][Fd][Ec] | [DB]3- [DB]2 [DF] | [EG][EG][EG] [GB][FA][EG] | %14
 [DF][DF][DF] [DB]2 [DB]/[DB]/ | [EA][EA][EA] [FA][Fd][Q:1/4=90][Ec][Q:1/4=12] | [DB]6 |] %17
V:2
 z3 z2 [B,,B,] | [B,,B,][B,,B,][B,,B,] [B,,F,][B,,G,][B,,A,] | %2
w: 1.~How~|safe~ is~ the~ soul~ that~ a|
 [B,,B,][B,,B,][B,,B,] [B,,B,]2 [B,,B,] | [F,C][F,C][F,C] [F,C][F,D][F,E] | D3 B,2 [B,,B,] | %5
w: bides~ in~ the~ Lord,~ Se|cure ly~ from~ sin~ hid~ a|way;~ * His~|
 [E,B,][E,B,][E,B,] [E,B,][E,B,][E,B,] | [B,,B,][B,,B,][B,,B,] [B,,B,]2 [B,,B,] | %7
w: an chor~ the~ prom ise~ of~|God's~ writ ten~ word,~ To~|
 [F,C][F,C][F,C] [F,C][F,C][F,C] | [B,,B,]3- [B,,B,]2 [B,,B,] | %9
w: keep~ him~ by~ night~ and~ by~|day.~ * *|
 [B,,B,][B,,B,][B,,B,] [B,,B,][B,,B,][B,,B,] | [F,A,][F,A,][F,A,] [F,A,]2 [F,A,] | %11
w: ||
 [F,A,][F,A,][F,A,] [F,A,][F,A,][F,A,] | B,[F,B,][D,B,] [B,,B,]2 [B,,B,] | %13
w: ||
 [E,B,][E,B,][E,B,] [E,B,][E,B,][E,B,] | [B,,B,][B,,B,][B,,B,] [B,,B,]2 [B,,B,]/[B,,B,]/ | %15
w: ||
 [F,C][F,C][F,C] [F,C][F,B,][F,,F,A,] | [B,,B,]6 |] %17
w: ||
V:3
 x6 | x6 | x6 | x6 | B,,6 | x6 | x6 | x6 | x6 | x6 | x6 | x6 | x6 | x6 | x6 | x6 | x6 |] %17

